X: 13033
T: Finbarr Dwyer's
R: reel
M: 4/4
K: Cmajor
G|ceGe ceGF|DFF2 DFCe|ceGe ceGF|Gcc2 Cced|
ceGe ceGF|DFF2 DF_B,D|ECEG F_B,DF|Gced c3G:|
ecef g3f|d2_Bd f_Bdf|egce g3c'|_bgfa gccd|
ecef g3f|d2_Bd f_Bdf|eceg fedc|BGAB c3d:|

